src/assets/images/icons/zap-off.svg

<svg xmlns="http://www.w3.org/2000/svg" fill="none" viewBox="0 0 24 24"><g clip-path="url(#a)"><path stroke="#181D27" stroke-linecap="round" stroke-linejoin="round" stroke-width="2" d="M12.41 6.75 13 2l-2.43 2.92m8 7.99L21 10h-5.34M8 8l-5 6h9l-1 8 5-6M1 1l22 22"/></g><defs><clipPath id="a"><path fill="#fff" d="M0 0h24v24H0z"/></clipPath></defs></svg>

<svg width="24" height="24" viewBox="0 0 24 24" fill="none" xmlns="http://www.w3.org/2000/svg">
<g clip-path="url(#clip0_16_4142)">
<path d="M12.41 6.75L13 2L10.57 4.92M18.57 12.91L21 10H15.66M8 8L3 14H12L11 22L16 16M1 1L23 23" stroke="#181D27" stroke-width="2" stroke-linecap="round" stroke-linejoin="round"/>
</g>
<defs>
<clipPath id="clip0_16_4142">
<rect width="24" height="24" fill="white"/>
</clipPath>
</defs>
</svg>
